X:36
T:Kari's Tune
T:Cross of Threads
R:Reel
C:Ross Ainslie
D:Ross Ainslie: Vana (2020)
Z:Cyrille 2020-11
N:Tune joué en Sib sur l'album, transposé pour être joué aux pipes
M:2/2
Q:1/2=116
K:D
|:  EGBG AGEB | AGED E2FG | EGBG ABde | dcBA B2BB |
    Bcde dced | cfed edcc | dBBA BGAG |1 FEFA BBBG :|2 FEFA BBBc ||
|: _eBBA B2fg | fe_e=e f2gf | a2gf e2fg | fe_e=e f2gf |
|1 _eBBA B2fg | fe_e=e f2gf | a2fg- gef2 | faaf gef2 :|2
   _eBBA B2AG | AGED EAAG   | B2B2 AGED | E2E2 EGGD |

